!!!!SEGMENT: pl-wumfc--r282--001-001_paderewski-ignacy-jan--exercises-1-exercise-1.krn
!!!cenid: 18xx:3160
!!!COM: Paderewski, Ignacy Jan
!!!COM-rismid: pe30029943
!!!CDT: 1860/11/18-1941/06/29
!!!CNT: Polish
!!!GTL: [Exercises 1]
!!!OTL: [Exercise] 1
!!!OMV: 001
!!!PDT:
!!!AGN:
!!!SMS-siglum: PL-Wumfc
!!!SMS-shelfmark: R282
!!!SMS-shelfwork: 001-001 G
!!!SMS-variant:
!!!SMS-altvar:
!!!NIFC-rismid: 1001158933
!!!URL-scan: http://repozytorium.nifc.pl/skany/pl-wumfc--r282
!!!ONB-nifc: UWAGA: pierwsza grupa ćwiczeń na skanach 0004-0007
!!!key: a
**kern	**kern
*part1	*part1
*staff2	*staff1
*>[A,A,B]	*>[A,A,B]
*>A	*>A
*I"[Pianoforte]	*I"[Pianoforte]
*Ipiano	*Ipiano
*ICklav	*ICklav
*clefF4	*clefG2
*k[]	*k[]
*a:	*a:
!	!LO:TX:a:i:t=C. f.
!	!LO:TX:t=P:problem:brak oznaczenie metrycznego:global
4E\	4e/
=1	=1
4F\	4a/
4G\	4g/
4A\	4f/
4c\	4e/
=2	=2
4B\	2d/
4A\	.
4G#X;\	4e;/
(4G#\	4b\
=3	=3
4A\	4cc\
4C\)	4cc\
4D\	4b\
4E\	4b\
=4	=4
!LO:N:vis=2	!
2.AA;/	2.a;/
=:|!	=:|!
*>B	*>B
4C\	4cc\
=5	=5
4D\	4b\
4G\	4g/
4F\	4a/
4E\	4b\
!!LO:LB:g=original
=6	=6
4A\	2cc\
4E\	.
4F;\	4cc;\
4E\	4g/
=7	=7
4D\	4a/
4E\	4g/
4C#X\	4a/
4D\	4f/
=8	=8
2.A;;\	2.e;/
4A\	4cc\
=9	=9
4G\	4b\
4F\	4dd\
4E\	4cc\
4G\	4b\
=10	=10
4F#\	2a/
4E\	.
4D;\	4b;\
4E\	4e/
=11	=11
4D\	4f/
4E\	4e/
4F\	4d/
4G\	4d/
=12	=12
!LO:N:vis=2	!
2.C;/	2.e;/
==	==
*-	*-
!!!system-decoration: {(s1,s2)}
!!!AIN: 1 piano
!!!ENC: Berenika Jozajtis
!!!END: 2021-11-11
!!!ENC: Andrzej Kubiczek
!!!END: 2021-11-13
